svg/icon/blcn.svg

<svg xmlns="http://www.w3.org/2000/svg" xmlns:xlink="http://www.w3.org/1999/xlink" width="32" height="32" viewBox="0 0 32 32">
  <defs>
    <linearGradient id="blcn-c" x1="50%" x2="50%" y1="0%" y2="100%">
      <stop offset="0%" stop-color="#FFF" stop-opacity=".5"/>
      <stop offset="100%" stop-opacity=".5"/>
    </linearGradient>
    <circle id="blcn-b" cx="16" cy="15" r="15"/>
    <filter id="blcn-a" width="111.7%" height="111.7%" x="-5.8%" y="-4.2%" filterUnits="objectBoundingBox">
      <feOffset dy=".5" in="SourceAlpha" result="shadowOffsetOuter1"/>
      <feGaussianBlur in="shadowOffsetOuter1" result="shadowBlurOuter1" stdDeviation=".5"/>
      <feComposite in="shadowBlurOuter1" in2="SourceAlpha" operator="out" result="shadowBlurOuter1"/>
      <feColorMatrix in="shadowBlurOuter1" values="0 0 0 0 0   0 0 0 0 0   0 0 0 0 0  0 0 0 0.199473505 0"/>
    </filter>
  </defs>
  <g fill="none" fill-rule="evenodd">
    <use fill="#000" filter="url(#blcn-a)" xlink:href="#blcn-b"/>
    <use fill="#2AABE4" xlink:href="#blcn-b"/>
    <use fill="url(#blcn-c)" style="mix-blend-mode:soft-light" xlink:href="#blcn-b"/>
    <circle cx="16" cy="15" r="14.5" stroke="#000" stroke-opacity=".097"/>
    <path fill="#FFF" d="M7.9,6 L14.1,6 C14.5970563,6 15,6.40294373 15,6.9 L15,13.1 C15,13.5970563 14.5970563,14 14.1,14 L7.9,14 C7.40294373,14 7,13.5970563 7,13.1 L7,6.9 C7,6.40294373 7.40294373,6 7.9,6 Z M17.9,6 L24.1,6 C24.5970563,6 25,6.40294373 25,6.9 L25,13.1 C25,13.5970563 24.5970563,14 24.1,14 L17.9,14 C17.4029437,14 17,13.5970563 17,13.1 L17,6.9 C17,6.40294373 17.4029437,6 17.9,6 Z M17.9,16 L24.1,16 C24.5970563,16 25,16.4029437 25,16.9 L25,23.1 C25,23.5970563 24.5970563,24 24.1,24 L17.9,24 C17.4029437,24 17,23.5970563 17,23.1 L17,16.9 C17,16.4029437 17.4029437,16 17.9,16 Z M7.9,16 L14.1,16 C14.5970563,16 15,16.4029437 15,16.9 L15,23.1 C15,23.5970563 14.5970563,24 14.1,24 L7.9,24 C7.40294373,24 7,23.5970563 7,23.1 L7,16.9 C7,16.4029437 7.40294373,16 7.9,16 Z"/>
  </g>
</svg>

<svg height="32" width="32" xmlns="http://www.w3.org/2000/svg" xmlns:xlink="http://www.w3.org/1999/xlink"><defs><linearGradient id="c" x1="50%" x2="50%" y1="0%" y2="100%"><stop offset="0" stop-color="#fff" stop-opacity=".5"/><stop offset="1" stop-opacity=".5"/></linearGradient><circle id="b" cx="16" cy="15" r="15"/><filter id="a" height="111.7%" width="111.7%" x="-5.8%" y="-4.2%"><feOffset dy=".5" in="SourceAlpha" result="shadowOffsetOuter1"/><feGaussianBlur in="shadowOffsetOuter1" result="shadowBlurOuter1" stdDeviation=".5"/><feComposite in="shadowBlurOuter1" in2="SourceAlpha" operator="out" result="shadowBlurOuter1"/><feColorMatrix in="shadowBlurOuter1" values="0 0 0 0 0 0 0 0 0 0 0 0 0 0 0 0 0 0 0.199473505 0"/></filter></defs><g fill="none" fill-rule="evenodd"><use fill="#000" filter="url(#a)" xlink:href="#b"/><use fill="#2aabe4" xlink:href="#b"/><use fill="url(#c)" xlink:href="#b"/><circle cx="16" cy="15" r="14.5" stroke="#000" stroke-opacity=".097"/><path d="M7.9 6h6.2a.9.9 0 0 1 .9.9v6.2a.9.9 0 0 1-.9.9H7.9a.9.9 0 0 1-.9-.9V6.9a.9.9 0 0 1 .9-.9zm10 0h6.2a.9.9 0 0 1 .9.9v6.2a.9.9 0 0 1-.9.9h-6.2a.9.9 0 0 1-.9-.9V6.9a.9.9 0 0 1 .9-.9zm0 10h6.2a.9.9 0 0 1 .9.9v6.2a.9.9 0 0 1-.9.9h-6.2a.9.9 0 0 1-.9-.9v-6.2a.9.9 0 0 1 .9-.9zm-10 0h6.2a.9.9 0 0 1 .9.9v6.2a.9.9 0 0 1-.9.9H7.9a.9.9 0 0 1-.9-.9v-6.2a.9.9 0 0 1 .9-.9z" fill="#fff"/></g></svg>
